X: 11
T: Chester v.2
P: piffero secondo a0152
O: Dan Moylan
%R: march
F: http://ancients.sudburymuster.org/mus/col/pdf/hymnsF.pdf
Z: 2020 John Chambers <jc:trillian.mit.edu>
M: 2/4
L: 1/8
K: G
|:\
BG cd | B2 c2 | cG AG | B4 |\
BG BG | Bc B/c/d | FG AB | c4 |
BG cG | BG cd | B2 c2 | B4 |\
B2 c2 | c/d/e/d/ ff | BF GA | B4 :|


